assets/images/sections/about/stripe_payments.svg

<svg width="36" height="36" viewBox="0 0 36 36" version="1.1" xmlns="http://www.w3.org/2000/svg" xmlns:xlink="http://www.w3.org/1999/xlink">
<title>credit-card (1)</title>
<desc>Created using Figma</desc>
<g id="Canvas" transform="translate(6 4177)">
<g id="credit-card (1)">
<g id="Shape">
<use xlink:href="#path0_fill" transform="translate(-6 -4177)" fill="#ED93A3"/>
</g>
<g id="Shape">
<use xlink:href="#path1_fill" transform="translate(5.29628 -4155.56)" fill="#ED93A3"/>
</g>
<g id="Shape">
<use xlink:href="#path2_fill" transform="translate(7.41747 -4149.96)" fill="#ED93A3"/>
</g>
<g id="Shape">
<use xlink:href="#path3_fill" transform="translate(11.7472 -4152.18)" fill="#ED93A3"/>
</g>
<g id="Shape">
<use xlink:href="#path4_fill" transform="translate(18.1601 -4165.7)" fill="#ED93A3"/>
</g>
<g id="Shape">
<use xlink:href="#path5_fill" transform="translate(15.7739 -4173.18)" fill="#ED93A3"/>
</g>
<g id="Shape">
<use xlink:href="#path6_fill" transform="translate(1.00075 -4152.04)" fill="#ED93A3"/>
</g>
</g>
</g>
<defs>
<path id="path0_fill" fill-rule="evenodd" d="M 23.6449 0.954102L 35.0444 12.3535C 36.3185 13.6274 36.3185 15.7007 35.0445 16.9751L 17.5212 34.4985L 25.4991 34.4985C 25.9132 34.4985 26.2491 34.834 26.2491 35.2485C 26.2491 35.6626 25.9132 35.9985 25.4991 35.9985L 14.6673 35.998L 14.6644 35.9985L 14.6615 35.998L 10.4998 35.998C 10.0856 35.998 9.74981 35.6626 9.74981 35.248C 9.74981 34.834 10.0856 34.4985 10.4998 34.4985L 11.8079 34.4985L 2.36067 25.0513L 2.36025 25.0508L 2.3599 25.0503L 0.954211 23.6445C 0.338906 23.0293 0 22.209 0 21.334C 0 20.459 0.338906 19.6387 0.954211 19.0229L 19.0233 0.954102C 19.6386 0.338867 20.4593 0 21.3341 0C 22.2089 0 23.0295 0.338867 23.6449 0.954102ZM 15.9146 33.9839L 33.9838 15.9146C 34.673 15.2251 34.6731 14.1035 33.9838 13.4141L 27.7021 7.13281L 10.3492 24.4858C 10.2027 24.6323 10.0107 24.7056 9.81886 24.7056C 9.62698 24.7056 9.43502 24.6323 9.28856 24.4858C 8.99571 24.1929 8.99571 23.7178 9.28856 23.4253L 26.6415 6.07178L 22.5843 2.01465C 22.2523 1.68262 21.8083 1.5 21.3341 1.5C 20.8599 1.5 20.4159 1.68262 20.0839 2.01465L 2.0148 20.084C 1.68279 20.416 1.49998 20.8599 1.49998 21.334C 1.49998 21.8081 1.68279 22.252 2.01473 22.584L 2.89055 23.46L 20.2433 6.10693C 20.5363 5.81396 21.0111 5.81396 21.304 6.10693C 21.5968 6.3999 21.5968 6.87451 21.304 7.16748L 3.95121 24.5205L 13.4144 33.9839C 13.7456 34.3149 14.1884 34.4976 14.6614 34.4985L 14.6671 34.4985C 15.1403 34.4976 15.5832 34.3149 15.9146 33.9839Z"/>
<path id="path1_fill" d="M 7.18191 0.219612C 6.88906 -0.0732393 6.41431 -0.073169 6.12125 0.219612L 0.219639 6.12115C -0.0732129 6.414 -0.0732129 6.88882 0.219639 7.18182C 0.3661 7.32828 0.558053 7.40147 0.749936 7.40147C 0.941818 7.40147 1.13377 7.32821 1.28023 7.18182L 7.18184 1.28028C 7.47476 0.987284 7.47476 0.512464 7.18191 0.219612Z"/>
<path id="path2_fill" d="M 2.64015 0.219691L 0.219639 2.6402C -0.0732129 2.93305 -0.0732129 3.40794 0.219639 3.70086C 0.3661 3.84725 0.558053 3.92052 0.749936 3.92052C 0.941959 3.92052 1.13377 3.84725 1.28023 3.70086L 3.70074 1.28036C 3.99359 0.987504 3.99359 0.512613 3.70074 0.219691C 3.40789 -0.0732305 2.93321 -0.0732305 2.64015 0.219691Z"/>
<path id="path3_fill" d="M 0.537864 0.219604L 0.2197 0.537697C -0.0732217 0.830549 -0.0732217 1.30537 0.21963 1.59836C 0.366021 1.74482 0.558044 1.81809 0.749927 1.81809C 0.94181 1.81809 1.13376 1.74482 1.28015 1.59836L 1.59832 1.28027C 1.89124 0.987416 1.89124 0.512596 1.59839 0.219674C 1.30568 -0.0731777 0.830716 -0.073248 0.537864 0.219604Z"/>
<path id="path4_fill" fill-rule="evenodd" d="M 3.93195 0C 4.13086 0 4.32162 0.0791016 4.46224 0.219727L 6.58343 2.34082C 6.87628 2.63379 6.87628 3.10889 6.58343 3.40137L 3.40158 6.5835C 3.25512 6.72949 3.0633 6.80273 2.87128 6.80273C 2.6794 6.80273 2.48745 6.72998 2.34098 6.5835L 0.219656 4.4624C 0.079031 4.32178 0 4.13086 0 3.93164C 0 3.73291 0.079031 3.54248 0.219656 3.40137L 3.40165 0.219727C 3.54234 0.0791016 3.73303 0 3.93195 0ZM 1.81055 3.93164L 2.87121 4.99219L 4.99247 2.87109L 3.93188 1.81055L 1.81055 3.93164Z"/>
<path id="path5_fill" d="M 0.749971 1.81823C 0.941994 1.81823 1.13395 1.74496 1.28034 1.59843L 1.5985 1.28013C 1.89128 0.987205 1.89121 0.512314 1.59829 0.219533C 1.30544 -0.073248 0.830479 -0.0731777 0.537697 0.219744L 0.219533 0.538049C -0.073248 0.830971 -0.0731777 1.30586 0.219744 1.59864C 0.366205 1.7451 0.558018 1.81823 0.749971 1.81823Z"/>
<path id="path6_fill" d="M 0.537803 0.219691L 0.219639 0.537855C -0.0732129 0.830637 -0.0732129 1.30553 0.219639 1.59852C 0.3661 1.74491 0.558053 1.81811 0.749936 1.81811C 0.941818 1.81811 1.13377 1.74491 1.28023 1.59852L 1.5984 1.28036C 1.89125 0.987434 1.89125 0.512543 1.5984 0.219691C 1.30547 -0.0732305 0.830725 -0.0732305 0.537803 0.219691Z"/>
</defs>
</svg>

<svg xmlns="http://www.w3.org/2000/svg" xmlns:xlink="http://www.w3.org/1999/xlink" width="36" height="36"><g fill="#ED93A3" transform="translate(6 4177)"><use xlink:href="#A" x="-6" y="-4177"/><use xlink:href="#B" x="5.296" y="-4155.56"/><use xlink:href="#C" x="7.417" y="-4149.96"/><use xlink:href="#D" x="11.747" y="-4152.18"/><use xlink:href="#E" x="18.16" y="-4165.7"/><use xlink:href="#F" x="15.774" y="-4173.18"/><use xlink:href="#G" x="1.001" y="-4152.04"/></g><defs><path id="A" d="M23.645.954l11.4 11.4c1.274 1.274 1.274 3.347 0 4.622L17.52 34.5H25.5a.75.75 0 1 1 0 1.5l-10.832-.001-.003.001-.003-.001H10.5a.75.75 0 0 1-.75-.75.75.75 0 0 1 .75-.749h1.308L.954 23.645C.34 23.03 0 22.21 0 21.334s.34-1.695.954-2.31L19.023.954C19.64.34 20.46 0 21.334 0s1.695.34 2.31.954zm-7.73 33.03l18.07-18.07a1.77 1.77 0 0 0 0-2.501l-6.282-6.28L10.35 24.486a.75.75 0 0 1-1.061 0 .75.75 0 0 1 0-1.061L26.642 6.072l-4.057-4.057c-.332-.332-.776-.515-1.25-.515s-.918.183-1.25.515l-18.07 18.07c-.332.332-.515.776-.515 1.25s.183.918.515 1.25l.876.876L20.243 6.107a.75.75 0 0 1 1.061 1.061L3.95 24.52l9.463 9.463c.33.33.774.514 1.247.515h.006c.473-.001.916-.184 1.248-.515z" fill-rule="evenodd"/><path id="B" d="M7.182.22a.75.75 0 0 0-1.061 0L.22 6.12a.75.75 0 0 0 0 1.061.75.75 0 0 0 .53.22.75.75 0 0 0 .53-.22L7.182 1.28a.75.75 0 0 0 0-1.061z"/><path id="C" d="M2.64.22L.22 2.64a.75.75 0 0 0 0 1.061.75.75 0 0 0 .53.22.75.75 0 0 0 .53-.22L3.7 1.28a.75.75 0 0 0 0-1.061.75.75 0 0 0-1.061 0z"/><path id="D" d="M.538.22L.22.538a.75.75 0 0 0 0 1.061.75.75 0 0 0 .53.22c.192 0 .384-.073.53-.22l.318-.318a.75.75 0 0 0 0-1.061.75.75 0 0 0-1.061 0z"/><path id="E" d="M3.932 0a.75.75 0 0 1 .53.22l2.12 2.12a.75.75 0 0 1 0 1.061L3.402 6.584a.75.75 0 0 1-.53.219c-.192 0-.384-.073-.53-.22L.22 4.462a.75.75 0 0 1 0-1.061L3.402.22a.75.75 0 0 1 .53-.22zM1.81 3.932l1.06 1.06 2.12-2.12-1.06-1.06-2.12 2.12z" fill-rule="evenodd"/><path id="F" d="M.75 1.818c.192 0 .384-.073.53-.22L1.6 1.28a.75.75 0 0 0 0-1.061.75.75 0 0 0-1.061 0L.22.538a.75.75 0 0 0 0 1.061c.146.146.338.22.53.22z"/><path id="G" d="M.538.22L.22.538a.75.75 0 0 0 0 1.061.75.75 0 0 0 .53.22.75.75 0 0 0 .53-.22l.318-.318a.75.75 0 0 0 0-1.061.75.75 0 0 0-1.061 0z"/></defs></svg>
